X: 1
T: Kate Dalrymple  #1   [A]
T: Jinglin' Johnnie
S: Atholl
C: Trad
Z: 2014 John Chambers <jc:trillian.mit.edu>
S: page from Concord Slow Scottish Session collection, handwritten by Barbara McOwen
L: 1/8
M: C|
R: Reel
K: A
cB\
|: "A"A2Ac "E7"B2Bc |  "A"A2Ac "E7"B2Bc | "A"A2ag "D"fedc | "E7"B2e2 "A"c2A2 :|
[| "A"e2ef     edcd |  "A"e2a2     e2cd | "A"e2ef    edcd |  "A"e2a2    e2c2 |
|  "D"d2fd  "A"c2ec | "Bm"B2Bc "E7"edcB | "A"A2ag "D"fedc | "E7"B2e2 "A"c2A2 |]

%%sep 1 1 500

